src/ImageAssets/w3n_logo.svg

<?xml version="1.0" encoding="UTF-8"?>
<svg width="70px" height="30px" viewBox="0 0 70 30" version="1.1" fill="#000000" xmlns="http://www.w3.org/2000/svg" xmlns:xlink="http://www.w3.org/1999/xlink">
    <title>sporran_w3n_logo</title>
    <g id="Version-1" stroke="none" stroke-width="1" fill-rule="evenodd">
        <g id="Landing-page" transform="translate(-350.000000, -121.000000)" fill-rule="nonzero">
            <g id="w3n_logo" transform="translate(350.000000, 121.000000)">
                <path d="M21.3559322,30 C18.9388693,30.0002804 16.6327652,29.002506 15,27.25 C12.5883578,29.8228082 8.81978031,30.6795373 5.50446441,29.4086662 C2.18914851,28.1377951 0.00454284343,24.9990125 0,21.5 L0,15.25 C0,14.0073593 1.0244332,13 2.28813559,13 C3.55183799,13 4.57627119,14.0073593 4.57627119,15.25 L4.57627119,21.37 C4.57627119,23.5625 6.32542373,25.415 8.47881356,25.4975 L8.6440678,25.4975 C10.8641134,25.4978108 12.6744012,23.747734 12.7118644,21.565 L12.7118644,21.5 L12.7118644,15.25 C12.7118644,14.0073593 13.7362976,13 15,13 C16.2637024,13 17.2881356,14.0073593 17.2881356,15.25 L17.2881356,21.5 C17.2881356,21.525 17.2881356,21.55 17.2881356,21.575 C17.3310737,23.7538148 19.1397723,25.497909 21.3559322,25.4975 L21.5211864,25.4975 C23.6745763,25.415 25.4237288,23.5625 25.4237288,21.37 L25.4237288,15.25 C25.4237288,14.0073593 26.448162,13 27.7118644,13 C28.9755668,13 30,14.0073593 30,15.25 L30,21.5 C30,26.1944203 26.129919,30 21.3559322,30 Z" id="Path"></path>
                <path d="M50,8.6440678 C49.9972053,11.0604723 48.9999511,13.365374 47.25,15 C49.8228083,17.4116422 50.6795373,21.1802197 49.4086662,24.4955356 C48.1377951,27.8108515 44.9990125,29.9954572 41.5,30 L35.25,30 C34.0073593,30 33,28.9755668 33,27.7118644 C33,26.448162 34.0073593,25.4237288 35.25,25.4237288 L41.3725,25.4237288 C43.5625,25.4237288 45.415,23.6720339 45.5,21.5211864 C45.5,21.4652542 45.5,21.409322 45.5,21.3559322 C45.5003108,19.1358866 43.750234,17.3255988 41.5675,17.2881356 L41.52,17.2881356 L35.27,17.2881356 C34.0273593,17.2881356 33.02,16.2637024 33.02,15 C33.02,13.7362976 34.0273593,12.7118644 35.27,12.7118644 L41.6025,12.7118644 C43.7813149,12.6689263 45.5254091,10.8602277 45.525,8.6440678 C45.525,8.58813559 45.525,8.53220339 45.525,8.47627119 C45.44,6.32542373 43.5875,4.57627119 41.3975,4.57627119 L35.25,4.57627119 C34.0073593,4.57627119 33,3.55183799 33,2.28813559 C33,1.0244332 34.0073593,0 35.25,0 L41.5,0 C43.7543402,0 45.9163484,0.910711671 47.5104076,2.53178884 C49.1044669,4.15286601 50,6.35151848 50,8.6440678 Z" id="Path"></path>
                <path d="M67.75,30 C66.5073593,30 65.5,28.9926407 65.5,27.75 L65.5,21.5 C65.5,19.290861 63.709139,17.5 61.5,17.5 L61.3525,17.5 C59.2275,17.575 57.5,19.4275 57.5,21.63 L57.5,27.75 C57.5,28.9926407 56.4926407,30 55.25,30 C54.0073593,30 53,28.9926407 53,27.75 L53,21.5 C53,16.8055796 56.8055796,13 61.5,13 C66.1944204,13 70,16.8055796 70,21.5 L70,27.75 C70,28.9926407 68.9926407,30 67.75,30 Z" id="Path"></path>
            </g>
        </g>
    </g>
</svg>

<svg width="70" height="30" xmlns="http://www.w3.org/2000/svg"><g fill-rule="nonzero"><path d="M21.356 30A8.686 8.686 0 0 1 15 27.25c-2.412 2.573-6.18 3.43-9.496 2.159C2.19 28.138.004 24.999 0 21.5v-6.25C0 14.007 1.024 13 2.288 13c1.264 0 2.288 1.007 2.288 2.25v6.12c0 2.192 1.75 4.045 3.903 4.127h.165c2.22 0 4.03-1.75 4.068-3.932V15.25c0-1.243 1.024-2.25 2.288-2.25 1.264 0 2.288 1.007 2.288 2.25v6.325c.043 2.179 1.852 3.923 4.068 3.922h.165c2.154-.082 3.903-1.934 3.903-4.127v-6.12c0-1.243 1.024-2.25 2.288-2.25C28.976 13 30 14.007 30 15.25v6.25c0 4.694-3.87 8.5-8.644 8.5ZM50 8.644A8.712 8.712 0 0 1 47.25 15c2.573 2.412 3.43 6.18 2.159 9.496-1.271 3.315-4.41 5.5-7.909 5.504h-6.25C34.007 30 33 28.976 33 27.712c0-1.264 1.007-2.288 2.25-2.288h6.123c2.19 0 4.042-1.752 4.127-3.903v-.165c0-2.22-1.75-4.03-3.932-4.068H35.27c-1.243 0-2.25-1.024-2.25-2.288 0-1.264 1.007-2.288 2.25-2.288h6.332c2.18-.043 3.923-1.852 3.923-4.068v-.168c-.085-2.15-1.938-3.9-4.127-3.9H35.25c-1.243 0-2.25-1.024-2.25-2.288C33 1.024 34.007 0 35.25 0h6.25c2.254 0 4.416.91 6.01 2.532A8.719 8.719 0 0 1 50 8.644ZM67.75 30a2.25 2.25 0 0 1-2.25-2.25V21.5a4 4 0 0 0-4-4h-.148c-2.124.075-3.852 1.927-3.852 4.13v6.12a2.25 2.25 0 1 1-4.5 0V21.5a8.5 8.5 0 1 1 17 0v6.25A2.25 2.25 0 0 1 67.75 30Z"/></g></svg>
